!!!OTL: Ich seind so sehr betruebet, die Ursach weiss ich wohl
!!!ARE: Europa, Mitteleuropa, Lothringen, Weiler
!!!SCT: D0013
!!!YEM: Copyright 1995, estate of Helmut Schaffrath.
**kern
*ICvox
*Ivox
!! Mixed meters:  4/4; 3/4
*M3/4
*k[b-e-]
*g:
{4d
4d
4d
=1
*M4/4
4d
8.d
16a
4.g
16b-
16a
=2
*M3/4
4g
4r
4r}
=3
{8b-
8cc
=4
4dd
4ee-
4dd
=5
4cc
4dd
8cc
8b-
=6
*M4/4
2a}
{2dd
=7
4ee-
8dd
8cc
4cc
8a
8cc
=8
*M3/4
4b-
4a
4g}
=9
{4b-
=10
*M4/4
4a
4dd
8g
8g
8f#
8a
=11
2g}
{2dd
=12
4ee-
8dd
8cc
4cc
8a
8cc
=13
*M3/4
4b-
4a
4g}
=14
{4b-
=15
*M4/4
4a
4dd
8g
8g
8f#
8a
=16
2g
2r
=17
4r}
==
!!!AGN: Liebes - Klage
!! Inzipit = Variante zum Lied
!!!ONB: ESAC (Essen Associative Code) Database: DVA
!!!AMT: irregular
!!!AIN: vox
!!!EED: Helmut Schaffrath
!!!EEV: 1.0
*-
